X:28
T:Where's Esther
R:marching air
C:Paul S. Cranford
O:Cape Breton Island
S:http://www.cranfordpub.com
D:currently unrecorded
B:currently unpublished in book form
Z:psc, (re-formatted,updated 9/17/04)
N:
H:                                                        copyrights Cranford Publications, SOCAN
L:1/8
Q:212
M:C
K:C
d<e|f3 e d>ed<c|A2 c2 G2 E<F|G>EG<c e3 c|d4 d2 d<e|
f>ed<c c>dc<B|A2 c2 G2 E<F|G2 c2 d3 c|c4 c2:|
|:d<e|f3 g a>gf<a|g2 c'2 c'3 e|d3 e f>ed<c|1c2 A2 A2 d<e|
f3 g a>gf<a|g2 c'2 c'3 a|g2 e<g f>ed<B|c4 c2:|
[2c>dcfe<g f>ed<B|c4 c2|]
